X: 1162
T: The Last Pint
B: ralph
B: steve tunes
M:4/4
Q: 1/4=100
K:Gmajor
V:1 
|:~"G"G2GE DEGA|"G"BGAB "C"AGED|~"G"G2GE DEGA|"G"BGAB "D"A3D|
~"G"G2GE DEGA|"G"BGAB "C"AGED|"G"GABG "C"BcAG|"D"FDEF "G"BGGD:|
|:"G"GBdG BdGB|"C"cBAG "G"BGGD|"G"GBdG BdGB|"C"cBAG "D"E2D2|
"G"GBdG BdGB|"C"cBAG "Em"BGGD|~"C"G2GE DEGA|"C"BGAB "D"A3D:|
% abcbook-tune_id 63143ea19f9ad8ac301b208f


% abcbook-boost 0
% abcbook-tablature 
% abcbook-transpose 
% abcbook-lastupdated 1665963516905
% abcbook-soundfonts 
% abcbook-repeats 3


